!!!ONB: MCCC : IMM0050_07 : Extracted Monophonic Melody
!!!COM: Mussorgsky, Modest
!!!OPR: Pictures at an Exhibition
!!!OMV: 7
!!!SCT: nan
!!!ODT: 1874///
**kern
*staff1
*IPiano
=1
*clefG2
*k[b-e-a-]
*E-:
*met(c)
*M4/4
16b-
16a
16b-
16b-
16b-
16a
16b-
16b-
16b-
16a
16b-
16b-
16b-
16a
16b-
16b-
=2
16b-
16a
16cc
16b-
16ee-
16dd
16ff
16ee-
16ff#
16gg
16ccc
16bb-
16aa-
16gg
16ff
16ee-
=3
16ccc-
16ff
16bb-
16aa-
16ccc-
16ff
16bb-
16aa-
16ccc-
16ff
16bb-
16ff
16aa
16dd
16aa-
16dd
=4
16b-
16a
16cc
16b-
16ee-
16dd
16ff
16ee-
16ff#
16gg
16ccc
16bb-
16aa-
16gg
16ff
16ee-
=5
16ggg-
16eee-
16ddd-
16ccc-
16bb-
16ddd-
16ccc-
16aa-
16gg-
16ee-
16dd-
16cc-
16b-
16dd-
16cc-
16a-
=6
4b-
4a
4b-
4a
=7
4dd-
4cc
4ee-
4dd
=8
8r
8cc-
8r
8cc-
16cc-
16b-
16cc-
16b-
16cc-
16b-
16cc-
16ff
=9
16b-
16a
16cc
16b-
16ee-
16dd
16ff
16ee-
16ff#
16gg
16ccc
16bb-
16aa-
16gg
16ff
16ee-
=10
16ccc-
16ff
16bb-
16aa-
16ccc-
16ff
16bb-
16aa-
16eee-
16ddd
16fff
16eee-
16bb-
16ddd
16ccc
16aa-
=11
16gg
16bb-
16aa-
16ff
16ee-
16dd
16ff
16ee-
16bb-
16bb-
16bb-
16bb-
16bb-
16bb-
16bb-
16bb-
=12
*k[]
*C:
8ddd
16ff#
16ff#
16ff#
16ff#
16ff#
16ff#
8ee
16bb-
16bb-
8ee
16bb-
16bb-
=13
16ee
16ee
16ee
16ee
16ee
16ee
16ee
16ee
16ee
16ee
16ee
16ee
8aa
8r
=14
8ddd
16ff#
16ff#
16ff#
16ff#
16ff#
16ff#
8ff#
16ccc
16ccc
8ff#
16ccc
16ccc
=15
16ff#
16ff#
16ff#
16ff#
16ff#
16ff#
16ff#
16ff#
16ff#
16ff#
16ff#
16ff#
8bb
8r
=16
*M3/4
8eee
16dd#
16ee
16ff#
16gg
16aa#
16bb
8ddd
16aa-
16gg
=17
8ccc
16b
16cc
16dd
16ee-
16ff#
16gg
8bb-
16ff-
16ee-
=18
8aa-
16b
16cc
16g
16a-
16b
16cc
8r
16cc-
16ff
=19
8aa-
16b
16cc
16g
16a-
16b
16cc
8r
16cc-
16ff
=20
8ee
16bb-
16bb-
8ddd-
16ee
16ff
16cc
16dd-
16ee
16ff
=21
8r
16ff-
16bb-
8ee
16bb-
16bb-
8r
16ff-
16bb-
=22
8r
16ee
16bb
8ee
16bb-
16bb-
8r
16ee
16bb
=23
8r
16gg
16ccc#
8ee
16bb-
16bb-
8r
16gg
16ccc#
=24
*M4/4
8r
16gg
16ccc#
8r
16gg
16ccc#
8r
16aa
16eee
16aa
16eee
16aa
16eee
=25
16dd
16dd
16dd
16dd
16dd
16ee-
16dd
16ff
16dd
16dd
16dd
16dd
16dd
16ee
16dd
16aa
=26
16dd
16dd
16dd
16dd
16dd
16dd
16dd
16dd
16dd
16dd
16dd
16dd
16dd
16dd
16dd
16dd
=27
*k[b-e-a-]
*E-:
16b-
16a
16cc
16b-
16ee-
16dd
16ff
16ee-
16ff#
16gg
16ccc
16bb-
16aa-
16gg
16ff
16ee-
=28
16ccc-
16ff
16bb-
16aa-
16ccc-
16ff
16bb-
16aa-
16ccc-
16ff
16bb-
16ff
16aa
16dd
16aa-
16dd
=29
16b-
16a
16cc
16b-
16ee-
16dd
16ff
16ee-
16ff#
16gg
16ccc
16bb-
16aa-
16gg
16ff
16ee-
=30
16ggg-
16eee-
16ddd-
16ccc-
16bb-
16ddd-
16ccc-
16aa-
16gg-
16ee-
16dd-
16cc-
16b-
16dd-
16cc-
16a-
=31
4b-
4a
4b-
4a
=32
4dd-
4cc
4ee-
4dd
=33
8r
16cc-
16ff
8r
16cc-
16ff
8ee
16bb-
16bb-
8ee
16bb-
16bb-
=34
16b-
16a
16cc
16b-
16ee-
16dd
16ff
16ee-
8ee
16bb-
16bb-
8r
16cc-
16ff
=35
16ff#
16gg
16ccc
16bb-
16aa-
16gg
16ff
16ee-
8ee
16bb-
16bb-
8r
16cc-
16ff
=36
8r
16fff
16bb-
8r
16fff
16bb-
8r
16fff
16bb-
4r
=37
32b-
32b-
32b-
32cc
32ee-
32ee-
32ee-
32ee-
32ccc
32aa-
32ff
32ee-
32cc
32dd
32ee-
32gg
32b-
32b-
32b-
32cc
32ee-
32ee-
32ee-
32ee-
32ccc
32aa-
32ff
32ee-
32cc
32dd
32ee-
32gg
32gg
32dd
32ee-
32b
32cc
32cc#
32dd
32ff
32gg
32dd
32ee-
32b
32cc
32cc#
32dd
32ff
=38
32g
32cc
32a
32dd
32b-
32ff
32cc#
32gg
32ee-
32aa
32ff#
32ccc
32gg#
32ddd
32ddd
32ggg
==
*-
